images/icons/meat_icon.svg

<svg enable-background="new 0 0 32 32" viewBox="0 0 32 32" xmlns="http://www.w3.org/2000/svg"><ellipse cx="11.5" cy="13" rx="2.5" ry="1"/><path d="m28.1 7.9c-2.9-1.2-6.7-1.9-10.8-1.9-8.7 0-15.3 3-15.3 7 0 3 2.1 5.4 5.5 6.4 1 .3 2 .4 3.1.4 1.3 0 2.7-.2 4-.7 2.1-.7 4.1-1.9 6.2-3.6 1.2-1 2.8-1.6 4.5-1.6h1.3c1.7 0 3-1.1 3.3-2.6.3-1.3-.4-2.7-1.8-3.4zm-16.6 8.1c-2.6 0-4.5-1.3-4.5-3s1.9-3 4.5-3 4.5 1.3 4.5 3-1.9 3-4.5 3z"/><path d="m26.6 16h-1.3c-1.2 0-2.4.4-3.2 1.1-2.3 1.9-4.6 3.2-6.9 4-1.5.5-3.1.8-4.6.8-1.2 0-2.5-.2-3.6-.5-2.1-.6-3.8-1.7-5-3.1v1.7c0 3 2.1 5.4 5.5 6.4 1 .3 2 .4 3.1.4 1.3 0 2.7-.2 4-.7 2.1-.7 4.1-1.9 6.2-3.6 1.2-1 2.8-1.6 4.5-1.6h1.3c1.9 0 3.1-1.3 3.4-2.7 0-.1.1-.2.1-.3v-3.2c-1 .9-2.2 1.3-3.5 1.3z"/></svg>

<?xml version="1.0" ?><svg id="Icons" style="enable-background:new 0 0 32 32;" version="1.1" viewBox="0 0 32 32" xml:space="preserve" xmlns="http://www.w3.org/2000/svg" xmlns:xlink="http://www.w3.org/1999/xlink"><g><ellipse cx="11.5" cy="13" rx="2.5" ry="1"/><path d="M28.1,7.9C25.2,6.7,21.4,6,17.3,6C8.6,6,2,9,2,13c0,3,2.1,5.4,5.5,6.4c1,0.3,2,0.4,3.1,0.4c1.3,0,2.7-0.2,4-0.7   c2.1-0.7,4.1-1.9,6.2-3.6c1.2-1,2.8-1.6,4.5-1.6h1.3c1.7,0,3-1.1,3.3-2.6C30.2,10,29.5,8.6,28.1,7.9z M11.5,16C8.9,16,7,14.7,7,13   s1.9-3,4.5-3s4.5,1.3,4.5,3S14.1,16,11.5,16z"/></g><path d="M26.6,16h-1.3c-1.2,0-2.4,0.4-3.2,1.1c-2.3,1.9-4.6,3.2-6.9,4c-1.5,0.5-3.1,0.8-4.6,0.8c-1.2,0-2.5-0.2-3.6-0.5  c-2.1-0.6-3.8-1.7-5-3.1V20c0,3,2.1,5.4,5.5,6.4c1,0.3,2,0.4,3.1,0.4c1.3,0,2.7-0.2,4-0.7c2.1-0.7,4.1-1.9,6.2-3.6  c1.2-1,2.8-1.6,4.5-1.6h1.3c1.9,0,3.1-1.3,3.4-2.7c0-0.1,0.1-0.2,0.1-0.3v-3.2C29.1,15.6,27.9,16,26.6,16z"/></svg>
